X:7296
T:The Rose that the Wind Blew Down
O:england
B:Joyce, P. W.; "Old Irish Folk Music and Songs"
R:song air
L:1/8
M:6/8
K:G
B/c/|dBd def|gag g2 d|efg dBG|(A3 A2)B/c/|
dBd def|gag g2 d|ecA BGE|(G3 G2)||c|
Bdg gfe|fdB B2 g/a/|bag agf|(e3 e2)g/a/|
bgb aef|gag e2 Hg|ecA BGE|(G3 G2)||


